X:1
T:Eibhli Geal Ciuin ni Cearbhaill
M:6/8
L:1/8
Q:80
C:Arranged by Dave Rickard
S:Slow Air
K:HP
{g}A|
{g}A3/2B/2d{gef}e3/2d/2e|
{g}f3/2e/2d{gef}e3/2d/2e|
{g}f3/2e/2d{g}d/2{e}B3/2{G}A|  !
{g}A3-A2{GAG}A|
{g}A3/2B/2d{gef}ef/2e/2d/2e/2|
{g}f3/2e/2d{gef}e3/2d/2e|  !
{g}f3/2e/2d{g}d/2{e}B3/2{G}A|
{g}A3-A2{GAG}A|]
{g}A|  !
{g}e3/2f/2ga2{GdG}a|
{g}a3/2g/2{a}f{g}e3/2d/2{e}B|
{gef}e3/2f/2ga2{GdG}a|  !
{f}g3{e}fed|
{g}e3/2f/2ga2{GdG}a|
{g}a3/2g/2{a}f{g}e3/2d/2{e}B|  !
{g}f3/2e/2d{g}d/2{e}B3/2{G}A|
{g}A3-A2{GAG}A|]

